X:75
T: IM KUEHLEN KELLER SITZ ICH HIER
N: B0561
O: Europa, Mitteleuropa, Deutschland
R: Studenten -, Trink - Lied
M: 4/4
L: 1/8
K: F
F2 | F2F,2A2F2 | c3dc2
B2 | A2F2D2=B,2 | C2C2z2
F2 | F2F,2A2F2 | c3dc2
B2 | A2F2D2=B,2 | C2C2z2
C2 | B3GE2C2 | F3Ac2
c2 | d3BG2F2 | E2C2z2
C2 | F2F,2A2F2 | B,2d2f2
ed | c2AFc2C2 | F2F,2z2

@@@ Tune index: 2293
